packages/foundations/assets/icons/functional/images/maps/navigation_to_right_16.svg

<svg width="16" height="16" viewBox="0 0 16 16" fill="none" xmlns="http://www.w3.org/2000/svg">
<g clip-path="url(#clip0_2213_5414)">
<path fill-rule="evenodd" clip-rule="evenodd" d="M8.07747 1.53906C8.29316 1.53906 8.50885 1.61986 8.64359 1.78146L11.8208 4.95552C11.9826 5.09024 12.0635 5.30576 12.0635 5.52128C12.0635 5.70985 11.9826 5.92537 11.8208 6.08705L8.56232 9.34238C8.42758 9.47702 8.21189 9.58478 7.9962 9.58478C7.53783 9.58478 7.18732 9.20765 7.18732 8.77661C7.18732 8.56109 7.26818 8.34557 7.42999 8.18389L9.28245 6.33317L6.37462 6.33398C5.92578 6.33398 5.56192 6.69784 5.56192 7.14668V13.6483C5.56192 14.0971 5.19806 14.461 4.74922 14.461C4.30038 14.461 3.93652 14.0971 3.93652 13.6483V7.14668C3.93652 5.80016 5.0281 4.70859 6.37462 4.70859L9.28083 4.70777L7.51126 2.93995C7.35087 2.76721 7.26998 2.56963 7.26859 2.34723C7.26859 1.91618 7.6191 1.53906 8.07747 1.53906Z" fill="#1A1C1F"/>
</g>
<defs>
<clipPath id="clip0_2213_5414">
<rect width="16" height="16" fill="white"/>
</clipPath>
</defs>
</svg>

<svg xmlns="http://www.w3.org/2000/svg" width="16" height="16" fill="none"><g clip-path="url(#a)"><path fill="#1A1C1F" fill-rule="evenodd" d="M8.077 1.54c.216 0 .432.08.567.241l3.177 3.175c.162.134.242.35.242.565 0 .189-.08.404-.242.566L8.562 9.342a.84.84 0 0 1-.566.243.81.81 0 0 1-.809-.808c0-.216.081-.431.243-.593l1.852-1.85H6.375a.813.813 0 0 0-.813.813v6.501a.813.813 0 0 1-1.625 0V7.147a2.44 2.44 0 0 1 2.438-2.438l2.906-.001L7.51 2.94a.86.86 0 0 1-.242-.593.81.81 0 0 1 .808-.808" clip-rule="evenodd"/></g><defs><clipPath id="a"><path fill="#fff" d="M0 0h16v16H0z"/></clipPath></defs></svg>
